icons/glyphs/glyph-location.svg

<?xml version="1.0" encoding="UTF-8" standalone="no"?><svg height="22" viewBox="0 0 5.8208332 5.8208335" width="22" xmlns="http://www.w3.org/2000/svg"><sodipodi:namedview/><metadata><rdf:RDF><cc:Work><dc:format>image/svg+xml</dc:format><dc:type/><dc:title/></cc:Work></rdf:RDF></metadata><path d="m11 0c-5.9766463 0-6.9328217 6.1933689-5.3769531 9.7402344l5.3769531 12.2597656 5.376953-12.2597656c1.555868-3.5468655.599693-9.7402344-5.376953-9.7402344zm-.015625 2.1015625a4.0587069 4.0587069 0 0 1 4.060547 4.0585937 4.0587069 4.0587069 0 0 1 -4.060547 4.0585938 4.0587069 4.0587069 0 0 1 -4.0585938-4.0585938 4.0587069 4.0587069 0 0 1 4.0585938-4.0585937z" fill="#d0d0d0" stroke-linecap="square" stroke-width="1.5" transform="scale(.26458333)"/></svg>

<?xml version="1.0" encoding="UTF-8" standalone="no"?>
<!-- Created with Inkscape (http://www.inkscape.org/) -->

<svg
   xmlns:dc="http://purl.org/dc/elements/1.1/"
   xmlns:cc="http://creativecommons.org/ns#"
   xmlns:rdf="http://www.w3.org/1999/02/22-rdf-syntax-ns#"
   xmlns:svg="http://www.w3.org/2000/svg"
   xmlns="http://www.w3.org/2000/svg"
   xmlns:sodipodi="http://sodipodi.sourceforge.net/DTD/sodipodi-0.dtd"
   xmlns:inkscape="http://www.inkscape.org/namespaces/inkscape"
   width="22"
   height="22"
   viewBox="0 0 5.8208332 5.8208335"
   version="1.1"
   id="svg8"
   inkscape:version="0.92+devel 15703 custom"
   sodipodi:docname="glyph-location.svg">
  <defs
     id="defs2" />
  <sodipodi:namedview
     id="base"
     pagecolor="#002466"
     bordercolor="#ffffff"
     borderopacity="0.29019608"
     inkscape:pageopacity="1"
     inkscape:pageshadow="2"
     inkscape:zoom="18.681818"
     inkscape:cx="11"
     inkscape:cy="11"
     inkscape:document-units="px"
     inkscape:current-layer="svg8"
     inkscape:document-rotation="0"
     showgrid="false"
     units="px"
     inkscape:showpageshadow="false"
     borderlayer="true"
     inkscape:window-width="1920"
     inkscape:window-height="1054"
     inkscape:window-x="0"
     inkscape:window-y="0"
     inkscape:window-maximized="1" />
  <metadata
     id="metadata5">
    <rdf:RDF>
      <cc:Work
         rdf:about="">
        <dc:format>image/svg+xml</dc:format>
        <dc:type
           rdf:resource="http://purl.org/dc/dcmitype/StillImage" />
        <dc:title></dc:title>
      </cc:Work>
    </rdf:RDF>
  </metadata>
  <path
     style="fill:#d0d0d0;stroke-width:1.5;stroke-linecap:square"
     d="M 11 0 C 5.0233537 0 4.0671783 6.1933689 5.6230469 9.7402344 L 11 22 L 16.376953 9.7402344 C 17.932821 6.1933689 16.976646 1.7763568e-15 11 0 z M 10.984375 2.1015625 A 4.0587069 4.0587069 0 0 1 15.044922 6.1601562 A 4.0587069 4.0587069 0 0 1 10.984375 10.21875 A 4.0587069 4.0587069 0 0 1 6.9257812 6.1601562 A 4.0587069 4.0587069 0 0 1 10.984375 2.1015625 z "
     transform="scale(0.26458333)"
     id="path4264"
     inkscape:label="#" />
</svg>
